X:1
T:Was There Ever a Friend So True?
T:Was There Ever a Friend So True?
T:Ira Bishop Wilson
T:Harriet Fithian, 1905
T:Public Domain Courtesy of the Cyber Hymnal™
T:Public Domain Courtesy of the Cyber Hymnal™
C:Ira Bishop Wilson
Z:Public Domain
Z:Courtesy of the Cyber Hymnal™
%%score 1 2
L:1/8
Q:1/4=85
M:6/8
K:Bb
V:1 treble 
V:2 bass 
V:1
 [DF] | [DF][EB][Ec] [Fd][DF][DG] | [DA][DB][DG] [EA]2 [EF]/[EF]/[Fe][Ge][Ae] [Fd]2 [Fc] | %3
w: 1.~I|have a dear Sav- ior who|loves me, I know, And whose will I de- light to|
w: 2.~This|won- der- ful friend is a|hHelp- er in- deed; He has prom- ised to lead me|
w: 3.~He|soothes me in sor- row with|songs in the night, And in- spires me with hope a-|
w: 4.~His|love is a fount- ain of|bless- ing so pure, Ev- er flow- ing for me, for|
 [Fd]3- [Fd]2 [DF] | [DF][EB][Ec] [Fd][DF][DG] | [DA][DB][DG] [EA]2 [EF]/[EF]/ | %6
w: do; * He’s|pre- sent to cheer me wher-|ev- er I go— Was there|
w: through, * And|clos- er He comes than a|bro- ther in need— Was there|
w: new; * He|fills me with cour- age my|bat- tles to fight— Was there|
w: you; * His|power is un- fail- ing, His|prom- ise is sure— Was there|
 [=Ec]<[Ec][Ec] [EG]2 [Ed] | [Fc]3- [Fc]2 ||"^Refrain" [EF]/[EF]/ | [DB]<[DB][DB] [DB]2 [DG] | %10
w: ev- er a friend so|true? *|||
w: ev- er a friend so|true? *|Was there|ev- er a friend so|
w: ev- er a friend so|true? *|||
w: ev- er a friend so|true? *|||
 [EA]3- [EA]2 [EF]/[EF]/ | [Fe]<[Ae][Ge] [Fe]2 [Fc] | [Fd]3- [Fd]2 [DF] | %13
w: |||
w: true? * Was there|ev- er a friend so|true? * I|
w: |||
w: |||
 [DF][DG][DB] [EB][EA][EG] | [EF][Fe][Ae] [Ge]!fermata![Fd][Fd]/[Fd]/ | %15
w: ||
w: oft- en have proved Him, I|ev- er will love Him— Was there|
w: ||
w: ||
 [=Ec]<[Ec][EG] [Fd]2 [_Ec] | [DB]3- [DB]2 |] %17
w: ||
w: ev- er a friend so|true? *|
w: ||
w: ||
V:2
 [B,,B,] | [B,,B,][B,,G,][B,,_G,] [B,,F,][B,,F,][B,,F,] | %2
w: ~|~ ~ ~ ~ ~ ~|
 [B,,F,][B,,F,][B,,B,] [F,C]2 [F,A,]/[F,A,]/[F,A,][F,B,][F,C] [F,B,]2 [F,A,] | %3
w: ~ ~ ~ ~ ~ ~ ~ ~ ~ ~ ~|
 [B,,B,]3- [B,,B,]2 [B,,B,] | [B,,B,][B,,G,][B,,_G,] [B,,F,][B,,F,][B,,F,] | %5
w: ~ * ~|~ ~ ~ ~ ~ ~|
 [B,,F,][B,,F,][B,,B,] [F,C]2 [F,A,]/[F,A,]/ | [G,B,]<[G,B,][G,B,] [C,B,]2 [C,B,] | %7
w: ~ ~ ~ ~ ~ ~|~ ~ ~ ~ ~|
 [F,A,]3- [F,A,]2 || [F,A,]/[F,A,]/ | [B,,B,]<[B,,F,][B,,F,] [B,,F,]2 [B,,F,] | %10
w: ~ *|~ ~|~ ~ ~ ~ ~|
 [C,F,]2 [C,F,] [C,F,]2 [F,A,]/[F,A,]/ | [F,C]<[F,C][F,B,] [F,A,]2 [F,A,] | %12
w: ~ so true? ~ ~|~ ~ ~ ~ ~|
 [B,,B,]2 [B,,B,] [B,,B,]2 [B,,B,] | [B,,B,][B,,B,][B,,F,] [C,F,][C,F,][F,A,] | %14
w: ~ so true? *||
 [F,C][F,C][F,C] [B,,B,]!fermata![B,,B,][=B,,_A,]/[B,,A,]/ | [C,G,]<[C,G,][C,C] [F,B,]2 [F,A,] | %16
w: ||
 [B,,B,]3- [B,,B,]2 |] %17
w: |

